icons/heart-17.svg

<svg width="16" height="17" viewBox="0 0 16 17" fill="none" xmlns="http://www.w3.org/2000/svg">
<path fill-rule="evenodd" clip-rule="evenodd" d="M5.1875 4.0415C4.18566 4.0415 3.125 4.91466 3.125 6.2915C3.125 7.90377 4.31031 9.39932 5.64852 10.5529C6.3015 11.1159 6.95722 11.5684 7.45097 11.8805C7.67305 12.0209 7.86119 12.1321 8 12.2116C8.13881 12.1321 8.32695 12.0209 8.54903 11.8805C9.04279 11.5684 9.69852 11.1159 10.3515 10.5529C11.6897 9.39932 12.875 7.90377 12.875 6.2915C12.875 4.91466 11.8144 4.0415 10.8125 4.0415C9.7826 4.0415 8.85591 4.78086 8.54085 5.88353C8.47186 6.12502 8.25114 6.2915 8 6.2915C7.74886 6.2915 7.52814 6.12502 7.45915 5.88353C7.14409 4.78086 6.21739 4.0415 5.1875 4.0415ZM8 12.854C7.74157 13.3537 7.74142 13.3536 7.74125 13.3534L7.73952 13.3525L7.73548 13.3504L7.72162 13.3432C7.70985 13.3369 7.69306 13.328 7.67158 13.3164C7.62863 13.2932 7.56691 13.2593 7.4891 13.2153C7.33355 13.1272 7.11328 12.998 6.84982 12.8314C6.32404 12.499 5.62038 12.014 4.91398 11.4051C3.53344 10.2149 2 8.42924 2 6.2915C2 4.29335 3.56434 2.9165 5.1875 2.9165C6.34802 2.9165 7.36467 3.51764 8 4.43147C8.63533 3.51764 9.65195 2.9165 10.8125 2.9165C12.4356 2.9165 14 4.29335 14 6.2915C14 8.42924 12.4665 10.2149 11.086 11.4051C10.3796 12.014 9.67595 12.499 9.15018 12.8314C8.88672 12.998 8.66645 13.1272 8.5109 13.2153C8.43309 13.2593 8.37138 13.2932 8.32842 13.3164C8.30694 13.328 8.29015 13.3369 8.27838 13.3432L8.26452 13.3504L8.26048 13.3525L8.25876 13.3534C8.25858 13.3536 8.25843 13.3537 8 12.854ZM8 12.854L8.25876 13.3534C8.09667 13.4373 7.90333 13.4373 7.74125 13.3534L8 12.854Z" fill="#272431"/>
</svg>

<svg xmlns="http://www.w3.org/2000/svg" width="16" height="17" viewBox="0 0 16 17"><path fill-rule="evenodd" d="M5.188 4.042c-1.002 0-2.063.873-2.063 2.25 0 1.612 1.185 3.107 2.524 4.26A15.414 15.414 0 008 12.213a15.413 15.413 0 002.351-1.659c1.339-1.154 2.524-2.65 2.524-4.262 0-1.376-1.06-2.25-2.063-2.25-1.03 0-1.956.74-2.271 1.843a.562.562 0 01-1.082 0C7.144 4.78 6.217 4.04 5.188 4.04zM8 12.854l-.259.5-.001-.002-.005-.002-.013-.007-.05-.027a15.504 15.504 0 01-.822-.485 16.558 16.558 0 01-1.936-1.426C3.534 10.215 2 8.43 2 6.292c0-1.999 1.564-3.375 3.188-3.375 1.16 0 2.177.6 2.812 1.514.635-.913 1.652-1.514 2.813-1.514C12.435 2.917 14 4.293 14 6.292c0 2.137-1.534 3.923-2.914 5.113a16.559 16.559 0 01-2.758 1.911l-.05.027-.013.007-.005.002-.001.001L8 12.854zm0 0l.259.5a.563.563 0 01-.518 0l.259-.5z"/></svg>
